X:161
T:Steirer
C:traditionell
R:Steirer
A:Bad Ischl, Salzkammergut
B:"Pfeifermusik aus Bad Ischl", Lois Blamberger, 3. Auflage, Bad Ischl 1990
S:im buch mit der Angabe: aus der Sammlung vom Blamberger Lois
N:im buch in D, nr. 5/4
Z:abc transcription Simon Wascher
M:3/4
L:1/8
K:D
V:1
f2 d3 (f | a2) c2 g2 | f2 c3 (g | f2) d2 f2 |\
f2 d3 (f | a2) c2 g2 | f2 (ceac) | d4 z2 :|
V:2
a2 f3 (a | g2) g2 b2 | a2 g3 (b | a2) f2 d'2 |\
a2 f3 (a | g2) g2 b2 | a2 (gac'g) | f4 z2 :|
